assets/images/Vector(6).svg

<svg width="20" height="20" viewBox="0 0 20 20" fill="none" xmlns="http://www.w3.org/2000/svg">
<path d="M12.9637 7.03633C13.2412 5.91508 13.3581 4.76821 13.3175 3.60571C13.2962 2.98759 13.235 2.37696 13.0437 1.78821C12.6737 0.650092 11.5624 -0.123656 10.5149 0.0163435C9.37241 0.168843 8.50677 1.14884 8.53615 2.45196C8.59303 4.96696 6.79362 7.34133 4.13359 7.75883C3.1692 7.91008 2.16731 7.81008 1.18229 7.81945C0.245403 7.8282 0.00289917 8.07445 0.00164795 9.05507C-0.000850677 12.2876 -0.000226974 15.5194 0.00164795 18.7519C0.00164795 19.6919 0.281654 19.9938 1.19854 19.9951C6.05611 20.0007 10.9137 20.0026 15.7713 19.9951C17.0513 19.9932 17.9457 19.2394 18.2313 17.9557C18.7919 15.4382 19.3532 12.9213 19.9019 10.4013C20.3344 8.41508 19.3107 7.10758 17.335 7.10258C15.94 7.09883 14.5456 7.09945 13.1506 7.0957C13.105 7.0957 13.0593 7.06758 12.9631 7.03508L12.9637 7.03633ZM10.9762 18.0694C9.38804 18.0694 7.79989 18.0519 6.21237 18.0801C5.75111 18.0882 5.60548 17.9738 5.61048 17.4782C5.63673 15.0344 5.66173 12.5894 5.60048 10.1469C5.58048 9.34757 5.79111 8.92695 6.51175 8.5932C8.72553 7.56758 9.92117 5.79508 9.9693 3.26446C9.98367 2.52196 10.3043 2.05509 10.8524 2.07259C11.4993 2.09321 11.7356 2.58571 11.8543 3.14696C12.155 4.56571 11.9743 5.93571 11.4162 7.25883C10.9612 8.33758 11.0431 8.46695 12.2162 8.4682C13.9006 8.47008 15.585 8.45195 17.2688 8.47383C18.1657 8.4857 18.4307 8.85007 18.2413 9.72882C17.7 12.2494 17.145 14.7669 16.6094 17.2888C16.4856 17.8726 16.1775 18.0894 15.595 18.0782C14.0556 18.0488 12.5156 18.0682 10.9756 18.0688L10.9762 18.0694ZM3.92671 13.8882C3.91983 13.8882 3.91233 13.8882 3.90546 13.8882C3.90546 14.7763 3.90546 15.6638 3.90546 16.5519C3.90546 18.0957 3.90546 18.0726 2.40793 18.0863C1.92355 18.0907 1.79793 17.9407 1.80293 17.4644C1.82417 15.3926 1.8123 13.3207 1.8123 11.2488C1.8123 9.66695 1.8123 9.6907 3.3617 9.69507C3.86171 9.69632 3.94733 9.88382 3.93671 10.3369C3.90921 11.5201 3.92733 12.7044 3.92733 13.8882H3.92671Z" fill="#7E7E7E"/>
</svg>

<svg xmlns="http://www.w3.org/2000/svg" width="20" height="20" fill="none"><path fill="#7E7E7E" d="M12.964 7.036c.277-1.12.394-2.268.354-3.43-.022-.618-.083-1.229-.274-1.818-.37-1.138-1.482-1.912-2.53-1.772C9.373.17 8.508 1.15 8.537 2.452c.057 2.515-1.742 4.89-4.402 5.307-.965.151-1.967.051-2.952.06-.937.01-1.18.255-1.18 1.236q-.004 4.849 0 9.697c0 .94.28 1.242 1.197 1.243q7.286.01 14.572 0c1.28-.002 2.175-.756 2.46-2.04.56-2.517 1.122-5.034 1.67-7.554.433-1.986-.59-3.293-2.566-3.298q-2.093-.004-4.184-.007c-.046 0-.092-.028-.188-.06M10.976 18.07c-1.588 0-3.176-.017-4.764.011-.46.008-.607-.106-.602-.602.027-2.444.052-4.889-.01-7.331-.02-.8.191-1.22.912-1.554 2.214-1.025 3.41-2.798 3.457-5.329.015-.742.335-1.209.883-1.191.647.02.884.513 1.002 1.074.301 1.419.12 2.789-.438 4.112-.455 1.079-.373 1.208.8 1.21 1.685.001 3.369-.017 5.053.005.897.012 1.162.376.972 1.255-.541 2.52-1.096 5.038-1.632 7.56-.123.584-.432.8-1.014.79-1.54-.03-3.08-.01-4.62-.01zm-7.05-4.18h-.02v2.663c0 1.544 0 1.52-1.498 1.534-.484.005-.61-.145-.605-.622.021-2.071.01-4.143.01-6.215 0-1.582 0-1.558 1.549-1.554.5.001.585.189.575.642-.028 1.183-.01 2.367-.01 3.551"/></svg>
